svg/ricky/side/emotion/dozing.svg

<?xml version="1.0" encoding="UTF-8"?>
<svg width="500px" height="600px" viewBox="0 0 500 600" version="1.1" xmlns="http://www.w3.org/2000/svg" xmlns:xlink="http://www.w3.org/1999/xlink">
    <title>dozing</title>
    <defs>
        <polygon id="path-1" points="0.000158116429 0.084 173.375056 0.084 173.375056 192.102015 0.000158116429 192.102015"></polygon>
    </defs>
    <g id="dozing" stroke="none" stroke-width="1" fill="none" fill-rule="evenodd">
        <g id="dozingsideface" transform="translate(154.000000, 64.000000)">
            <g id="face" transform="translate(0.000000, 0.916000)">
                <mask id="mask-2" fill="white">
                    <use xlink:href="#path-1"></use>
                </mask>
                <g id="Clip-5"></g>
                <path d="M171.0487,137.3859 C170.9037,137.5149 170.7917,137.6879 170.7627,137.9199 C169.5327,147.5449 162.4287,154.9569 155.6857,161.4389 C155.3617,161.3509 154.9877,161.4199 154.7377,161.7529 C150.6497,167.2129 148.0457,174.3569 142.1717,178.2569 C135.6437,182.5909 127.3667,181.2159 120.2967,179.1599 C116.3597,178.0159 112.5027,176.5929 108.6297,175.2519 C104.2837,173.7479 99.9387,172.2429 95.5937,170.7399 C87.9337,168.0879 80.0707,165.5149 73.3787,160.8089 C67.2357,156.4899 62.1397,149.8729 61.3947,142.2619 C61.3827,142.1729 61.3777,142.0839 61.3617,141.9949 C61.3177,141.4609 61.2917,140.9229 61.2907,140.3799 C61.2897,139.5659 60.3217,139.3819 59.8727,139.8209 C59.3967,139.9429 58.9967,140.4619 59.3067,141.0249 C59.5347,141.4389 59.6707,141.8779 59.7477,142.3229 C59.7657,142.5039 59.7817,142.6849 59.8037,142.8639 C59.8697,144.2729 59.2887,145.7079 58.2987,146.7449 C57.4497,147.6329 56.3587,148.1419 55.1937,148.3689 C54.8837,148.1629 54.5217,148.0429 54.1367,148.0699 C50.5767,148.3219 47.9107,145.0959 45.7257,142.7269 C42.8617,139.6229 40.1367,136.3869 37.5837,133.0219 C37.3717,132.7409 37.1117,132.5119 36.8267,132.3409 C36.7137,132.1489 36.5937,131.9609 36.4837,131.7669 C36.4777,131.7539 36.4717,131.7409 36.4647,131.7299 C36.4577,131.7139 36.4457,131.7029 36.4387,131.6889 C35.0867,129.2899 33.9887,126.7679 33.5097,124.0379 C33.2797,122.7339 33.2607,121.3619 33.5137,120.0479 C33.6397,119.9319 33.7597,119.7999 33.8647,119.6369 C34.9287,117.9939 36.6937,116.9089 38.5947,116.5359 C39.3827,116.6849 40.1797,116.6429 40.9347,116.4469 C41.3297,116.4939 41.7207,116.5739 42.1027,116.6899 C43.9487,117.2489 45.7137,118.6349 47.1947,119.8439 C48.7967,121.1549 50.1487,122.6169 51.0017,124.5219 C51.3437,125.2829 52.2757,125.5909 53.0787,125.4599 C53.3597,125.5239 53.6357,125.5319 53.8977,125.4909 C54.0607,125.4899 54.2127,125.4489 54.3447,125.3649 C54.8957,125.1449 55.3397,124.6929 55.5377,124.0629 C55.8917,122.9389 56.0097,121.8259 55.9537,120.7339 C56.0117,120.5409 56.0697,120.3499 56.1277,120.1569 C56.2287,119.8239 56.0627,119.4419 55.7717,119.2519 C55.5667,118.1719 55.2137,117.1139 54.7687,116.0819 C53.4957,109.0589 50.8127,102.3309 46.8597,96.3719 L48.4817,96.9899 C49.7577,97.4769 51.0677,98.1199 52.4237,98.3399 C53.5467,98.5229 54.5977,98.2619 55.4137,97.6389 C56.1257,97.9639 56.9757,97.9949 57.6547,97.5309 C59.3027,96.4039 60.7307,95.0759 61.9417,93.5309 C62.3577,93.0809 62.7227,92.5839 63.0087,92.0319 C63.1167,91.8239 63.1877,91.6189 63.2387,91.4179 C64.3077,89.7129 65.1597,87.8719 65.7717,85.9539 C68.4617,83.5629 69.2837,79.6619 69.2137,76.0009 C71.9847,79.3199 76.0607,81.4739 80.3877,81.9489 C85.9857,82.5659 91.3787,79.9259 94.7527,75.4969 C95.7057,74.2459 96.4517,72.8709 97.0067,71.4229 C97.2967,70.9069 97.5737,70.3849 97.8357,69.8559 C100.0567,73.5319 103.5777,76.4919 107.8267,77.3909 C112.8887,78.4609 118.0037,76.0769 120.5137,71.5449 C121.0577,70.5619 121.4297,69.5039 121.6357,68.4209 C121.9757,70.3099 122.5737,71.9479 124.0667,73.4409 C124.7097,74.0849 125.5287,74.6559 126.4207,75.1059 C127.9137,76.4769 129.7777,77.3779 132.1527,77.4499 C135.0277,77.5379 137.4767,75.7819 138.8607,73.3479 C139.9167,71.4949 140.3037,69.4359 140.4227,67.3429 C142.5007,70.4139 146.1227,72.4679 149.8857,72.2169 C153.7967,71.9559 157.1797,69.4299 158.8377,66.0089 C159.6527,66.4509 160.5357,66.7559 161.4607,66.9009 C161.5417,66.9399 161.6197,66.9879 161.7037,67.0239 C157.4137,72.4069 157.7187,80.3679 159.0817,86.7709 C160.6857,94.2959 164.1277,101.2539 166.9407,108.3659 C168.5627,112.4669 169.9907,116.6519 170.7917,120.9959 C170.8087,121.0859 170.8467,121.1519 170.8827,121.2199 C171.4697,126.5889 171.5237,132.0049 171.0487,137.3859 M117.8827,188.8349 C117.1197,189.6029 115.9017,189.9819 114.8747,190.2389 C113.7787,190.5129 112.5167,190.6419 111.4577,190.1569 C110.3377,189.6439 109.8647,188.4459 109.1057,187.5539 C108.7647,187.1539 108.3697,186.8629 107.9387,186.5719 C107.2827,186.1279 107.3527,185.6849 107.3297,184.9359 C107.2487,182.1359 107.1687,179.3349 107.0877,176.5349 C110.5697,177.7419 114.0597,178.9279 117.5677,180.0449 C117.5607,180.1429 117.5657,180.2449 117.6027,180.3579 C118.0747,181.8179 118.4027,183.3169 118.5217,184.8479 C118.6197,186.1059 118.8597,187.8539 117.8827,188.8349 M106.4557,3.6919 C105.7527,4.2209 104.9317,4.6619 104.0517,4.9889 C104.8067,4.4849 105.6127,4.0489 106.4557,3.6919 M136.7937,73.4409 C136.8197,73.4129 136.8437,73.3809 136.8687,73.3539 C135.8137,74.7409 134.3267,75.6979 132.5437,75.7819 C134.1467,75.4079 135.6637,74.6719 136.7937,73.4409 M143.5787,68.4159 C142.5947,67.5849 141.7737,66.5579 141.1937,65.4049 C141.9157,66.4679 142.7147,67.4769 143.5787,68.4159 M171.4997,116.7339 C167.9887,103.8099 159.5947,92.0199 159.8557,78.3009 C159.9287,74.4409 160.8557,70.4299 163.4787,67.5049 C163.9127,67.5579 164.3517,67.5719 164.7857,67.5309 C168.1547,67.2119 170.7357,64.4909 171.9517,61.4929 C173.4147,57.8859 173.4807,53.5769 173.3077,49.7399 C173.1837,46.9779 172.7317,44.1559 171.6807,41.5809 C171.2987,40.2199 170.5817,39.0019 169.6527,37.9809 C168.0097,35.8019 165.7897,34.0499 163.2037,33.2119 C163.1917,33.1789 163.1757,33.1469 163.1627,33.1139 C163.6027,30.9639 163.9007,28.6319 162.8147,26.6339 C162.4217,25.9109 161.8807,25.3109 161.2417,24.8699 C160.7507,22.8709 159.9427,21.0879 158.5407,19.6219 C158.1397,18.7569 157.5717,17.9689 156.8197,17.3269 C155.5437,16.2409 153.8757,15.7079 152.2407,15.7999 C151.7437,14.6939 151.0347,13.6469 150.0817,12.6939 C146.8417,9.4529 140.6907,8.1849 136.7517,10.9739 C136.4597,11.1819 136.1647,11.3959 135.8677,11.6099 C135.1267,8.8609 133.1887,6.5939 130.7027,5.1849 C130.5087,5.0309 130.3217,4.8689 130.1137,4.7279 C128.0407,3.3169 125.3347,2.7479 122.9077,3.3419 C122.3387,2.7839 121.7067,2.2929 121.0287,1.8699 C120.5277,1.2759 119.8557,0.8029 119.0987,0.5489 C118.2877,0.2779 117.4347,0.2119 116.5787,0.2259 C114.6387,-0.0761 112.6147,0.0949 110.7387,0.8179 C110.5517,0.8489 110.3617,0.8679 110.1757,0.9029 C106.6947,1.5449 103.1607,3.0479 100.7707,5.6169 C99.3167,5.6349 97.9227,5.2839 96.8587,4.4499 C93.6817,1.9629 90.3697,0.9649 87.0857,1.5909 C83.6397,1.9059 81.1687,4.2479 78.7227,6.5529 C77.8337,7.2779 76.9447,8.0019 76.0557,8.7269 C73.5077,7.2979 70.9727,5.8089 68.3447,4.5479 C65.8217,3.3379 62.9877,2.4959 60.2257,3.3969 C54.9217,5.1239 52.9687,10.6539 51.7077,15.5959 C47.7117,13.1979 42.7217,12.5509 38.2417,13.8839 C36.7447,14.3279 35.3527,15.0189 34.0697,15.8689 C31.8057,16.8919 29.7667,18.4469 28.1487,20.6259 C25.7327,23.8799 24.7347,27.7929 25.1947,31.5389 C24.4957,31.8209 23.6747,31.9739 23.1377,32.1849 C22.0377,32.6149 20.9807,33.1419 19.9867,33.7819 C17.4977,35.3829 15.3887,37.6019 13.9207,40.1779 C12.6107,41.7549 11.5767,43.5879 10.9547,45.7559 C9.4897,50.8549 10.7247,55.7419 13.5087,59.8039 C10.0697,60.6649 6.8517,62.3929 4.4487,65.0269 C2.6187,67.0319 1.4077,69.4799 0.9067,72.0739 C-0.5763,76.0229 -0.0613,80.6739 3.2627,83.7259 C3.4387,83.8879 3.6227,84.0319 3.8047,84.1809 C0.4357,86.0269 -0.4943,90.9599 0.2307,94.5029 C0.9477,98.0079 3.1167,101.1139 6.0927,103.0259 C5.6357,103.5479 5.2247,104.1269 4.8667,104.7669 C4.8517,104.7889 4.8327,104.8089 4.8177,104.8319 C4.4977,105.3059 4.2807,105.8209 4.1367,106.3549 C2.4117,111.0709 3.8607,117.3849 8.7487,119.7739 C9.8907,120.3309 10.0047,120.1529 10.4607,120.8639 C11.5087,122.4949 12.7787,123.6699 14.1597,124.4929 C13.1807,125.6229 12.6877,127.2039 13.0817,128.9819 C13.0927,129.0309 13.1067,129.0779 13.1177,129.1259 C13.0817,129.4279 13.0447,129.7299 13.0317,130.0319 C12.8637,133.8679 14.5127,137.4439 16.4177,140.6709 C18.4947,144.1889 20.5877,147.8239 23.0117,151.1149 C25.1947,154.0779 28.1277,156.7399 31.9207,157.2339 C34.9437,157.6259 38.1967,156.1819 39.5587,153.4699 C40.2087,154.0279 40.9267,154.5109 41.6877,154.9089 C42.6947,156.3309 44.2087,157.5359 45.4237,158.4799 C47.6717,160.2269 50.2617,161.6009 53.0587,162.2099 C58.1567,163.3219 63.8287,161.6729 66.8687,157.2849 C67.6617,158.1469 68.4907,158.9719 69.3637,159.7389 C75.6907,165.2929 83.7277,168.3429 91.5657,171.0819 C96.1837,172.6969 100.7977,174.3469 105.4237,175.9619 C105.5037,178.7089 105.5827,181.4569 105.6617,184.2039 C105.6957,185.3649 105.5317,186.7179 106.4987,187.5569 C106.8857,187.8929 107.3587,188.1029 107.7177,188.4719 C108.1147,188.8789 108.3997,189.3749 108.7297,189.8349 C110.1127,191.7649 112.1287,192.3599 114.4297,192.0049 C116.4157,191.6989 118.9957,190.8189 119.8477,188.8209 C120.4007,187.5229 120.2717,185.9369 120.1447,184.5659 C120.0217,183.2239 119.7647,181.9039 119.3937,180.6109 C126.1777,182.6399 133.7517,184.0209 140.4227,181.0849 C147.7287,177.8699 150.8517,170.2849 155.1187,164.0469 C155.2697,164.0249 155.4207,163.9719 155.5587,163.8389 C162.2947,157.4089 169.4277,150.2619 171.7897,141.0539 C172.0837,140.9509 172.3377,140.7109 172.3857,140.3279 C173.3347,132.6649 173.1947,124.9329 172.0227,117.3019 C171.9687,116.9539 171.7527,116.7839 171.4997,116.7339" id="Fill-4" fill="#231F20" mask="url(#mask-2)"></path>
            </g>
            <g id="eyes" transform="translate(82.989241, 81.577408)" fill="#231F20">
                <path d="M13.740059,3.90029164 C8.48605903,5.21929164 3.70105903,8.19129164 0.206059027,12.3332916 C-0.472940973,13.1372916 0.686059027,14.3082916 1.37105903,13.4972916 C4.69705903,9.55529164 9.17405903,6.74529164 14.177059,5.48829164 C15.205059,5.22929164 14.769059,3.64129164 13.740059,3.90029164" id="Fill-9"></path>
                <path d="M72.789859,4.56429164 C68.717859,1.05629164 63.256859,0.353291643 58.085859,0.00229164325 C57.027859,-0.0697083567 57.031859,1.57829164 58.085859,1.64929164 C62.773859,1.96629164 67.920859,2.53829164 71.625859,5.72829164 C72.424859,6.41729164 73.594859,5.25729164 72.789859,4.56429164" id="Fill-11"></path>
                <path d="M55.530159,17.1394916 C56.975159,20.9004916 59.410159,25.5934916 64.103159,25.4824916 C69.550159,25.3524916 72.107159,19.9194916 73.536159,15.4624916 C73.929159,14.2344916 71.999159,13.7074916 71.607159,14.9304916 C70.478159,18.4514916 68.529159,23.3754916 64.103159,23.4824916 C60.435159,23.5694916 58.568159,19.4954916 57.459159,16.6074916 C57.002159,15.4184916 55.067159,15.9354916 55.530159,17.1394916" id="Fill-13"></path>
                <path d="M14.888559,31.7342916 C16.547559,32.0772916 18.313559,31.8222916 19.789559,30.9822916 C21.275559,30.1372916 22.291559,28.7232916 22.883559,27.1462916 C23.550559,25.3712916 23.625559,23.3822916 23.445559,21.5132916 C23.393559,20.9752916 23.023559,20.5132916 22.445559,20.5132916 C21.945559,20.5132916 21.393559,20.9722916 21.445559,21.5132916 C21.748559,24.6582916 21.203559,28.7912916 17.599559,29.7292916 C14.245559,30.6022916 11.289559,27.7432916 11.705559,24.3882916 C11.772559,23.8512916 11.199559,23.3882916 10.705559,23.3882916 C10.110559,23.3882916 9.77355903,23.8502916 9.70555903,24.3882916 C9.29655903,27.6862916 11.609559,31.0572916 14.888559,31.7342916" id="Fill-15"></path>
            </g>
            <path d="M139.3573,130.4562 C137.3163,127.7392 135.2233,125.0602 133.1693,122.3522 C131.1833,119.7342 128.7853,116.1842 130.6523,112.8622 C131.1723,111.9372 129.7513,111.1062 129.2303,112.0312 C127.5723,114.9792 128.5153,118.3592 130.2283,121.0502 C132.3113,124.3222 134.9113,127.3242 137.2643,130.4052 C138.6073,132.1652 143.2733,138.4042 138.6783,139.1682 C136.7323,139.4912 134.7043,138.6722 132.9203,137.9912 C131.0623,137.2812 129.2623,136.4372 127.5113,135.4942 C126.5793,134.9912 125.7463,136.4132 126.6803,136.9162 C129.4593,138.4122 132.4843,139.8642 135.5733,140.5842 C137.9923,141.1472 141.4723,141.0122 142.1293,138.0252 C142.7363,135.2632 140.9293,132.5492 139.3573,130.4562" id="nose" fill="#231F20"></path>
            <path d="M138.7625,153.3644 C133.6345,153.5704 128.6355,154.7684 123.9585,156.8744 C122.7865,157.4024 123.8035,159.1264 124.9685,158.6014 C129.3085,156.6464 134.0095,155.5554 138.7625,155.3644 C140.0445,155.3114 140.0515,153.3114 138.7625,153.3644" id="mouth" fill="#231F20"></path>
            <g id="zs" transform="translate(175.310065, 90.937195)" fill="#231F20">
                <path d="M13.8323355,63.7954048 C12.0413355,64.4234048 10.2493355,65.0514048 8.45833546,65.6794048 C9.23933546,64.2264048 10.0193355,62.7734048 10.8013355,61.3184048 C11.4183355,60.1714048 12.0343355,59.0234048 12.6513355,57.8754048 C13.1743355,56.9024048 13.9033355,55.7464048 13.2683355,54.6444048 C12.1613355,52.7244048 9.39533546,54.0624048 7.88033546,54.5554048 C5.48433546,55.3334048 3.08933546,56.1124048 0.693335456,56.8914048 C-0.525664544,57.2874048 -0.0036645436,59.2194048 1.22533546,58.8194048 C3.25533546,58.1594048 5.28533546,57.4994048 7.31533546,56.8404048 C8.29033546,56.5234048 9.26333546,56.2034048 10.2383355,55.8894048 C10.5433355,55.7914048 10.8563355,55.6774048 11.1773355,55.6504048 C11.2443355,55.6464048 11.4433355,55.6174048 11.5173355,55.6584048 C11.5103355,55.6704048 11.5023355,55.6814048 11.4973355,55.7144048 C11.4323355,56.1304048 11.0583355,56.6174048 10.8623355,56.9814048 C10.5953355,57.4784048 10.3283355,57.9764048 10.0613355,58.4734048 L8.58033546,61.2284048 C7.55333546,63.1414048 6.52433546,65.0554048 5.49633546,66.9684048 C5.11133546,67.6854048 5.76033546,68.7404048 6.62633546,68.4374048 C9.20533546,67.5324048 11.7843355,66.6284048 14.3633355,65.7234048 C15.5703355,65.3004048 15.0513355,63.3674048 13.8323355,63.7954048" id="Fill-19"></path>
                <path d="M39.3323355,53.8940048 C36.4333355,55.1020048 33.5343355,56.3100048 30.6353355,57.5170048 C31.1513355,52.8060048 31.1443355,48.0720048 30.5573355,43.3560048 C30.4663355,42.6250048 29.7713355,42.0820048 29.0523355,42.4930048 C25.9443355,44.2640048 22.8363355,46.0360048 19.7283355,47.8070048 C18.6103355,48.4450048 19.6173355,50.1730048 20.7383355,49.5340048 C23.4023355,48.0150048 26.0673355,46.4970048 28.7323355,44.9770048 C29.1833355,49.5830048 29.1173355,54.2350048 28.4803355,58.8230048 C28.3913355,59.4670048 28.9143355,60.3840048 29.7113355,60.0520048 C33.0953355,58.6430048 36.4793355,57.2330048 39.8633355,55.8230048 C41.0343355,55.3350048 40.5203355,53.3990048 39.3323355,53.8940048" id="Fill-21"></path>
                <path d="M67.5960355,44.6616048 C63.4430355,46.4636048 59.1350355,47.8646048 54.7360355,48.9216048 C54.5340355,42.1726048 54.5100355,35.3806048 54.0470355,28.6506048 C53.9790355,27.6526048 53.7700355,26.4716048 52.7980355,25.9456048 C51.7210355,25.3636048 50.7060355,26.0096048 49.9340355,26.7526048 C47.3870355,29.1996048 45.0060355,31.8486048 42.5510355,34.3896048 C41.6560355,35.3146048 43.0690355,36.7306048 43.9650355,35.8036048 C45.9220355,33.7776048 47.8800355,31.7536048 49.8380355,29.7276048 C50.3030355,29.2466048 50.7960355,28.5386048 51.3480355,28.1666048 C51.9050355,27.7906048 51.9920355,28.0386048 52.0470355,28.6506048 C52.1780355,30.1056048 52.1460355,31.5956048 52.1960355,33.0566048 C52.3870355,38.7676048 52.5780355,44.4786048 52.7700355,50.1906048 C52.7920355,50.8616048 53.3890355,51.2996048 54.0350355,51.1546048 C59.0410355,50.0346048 63.9000355,48.4296048 68.6050355,46.3886048 C69.7830355,45.8776048 68.7660355,44.1536048 67.5960355,44.6616048" id="Fill-23"></path>
                <path d="M97.7610355,25.5346048 C92.4350355,29.0956048 87.1090355,32.6546048 81.7830355,36.2156048 C80.7950355,24.3266048 79.3320355,12.4806048 77.3710355,0.713604824 C77.2410355,-0.0693951756 76.1990355,-0.194395176 75.6990355,0.271604824 C70.7770355,4.85760482 65.8530355,9.44260482 60.9300355,14.0286048 C59.9860355,14.9076048 61.4030355,16.3196048 62.3440355,15.4426048 C66.8000355,11.2926048 71.2570355,7.14060482 75.7140355,2.99060482 C77.5980355,14.5916048 79.0170355,26.2626048 79.9420355,37.9786048 C79.9970355,38.6806048 80.7670355,39.2966048 81.4470355,38.8426048 C87.2210355,34.9816048 92.9950355,31.1216048 98.7710355,27.2616048 C99.8350355,26.5506048 98.8350355,24.8166048 97.7610355,25.5346048" id="Fill-25"></path>
            </g>
        </g>
    </g>
</svg>

<svg width="500" height="600" xmlns="http://www.w3.org/2000/svg" xmlns:xlink="http://www.w3.org/1999/xlink"><defs><path id="a" d="M0 .084h173.375v192.018H0z"/></defs><g fill="none" fill-rule="evenodd"><g transform="translate(154 64.916)"><mask id="b" fill="#fff"><use xlink:href="#a"/></mask><path d="M171.049 137.386a.837.837 0 00-.286.534c-1.23 9.625-8.334 17.037-15.077 23.519-.324-.088-.698-.02-.948.314-4.088 5.46-6.692 12.604-12.566 16.504-6.528 4.334-14.805 2.959-21.875.903-3.937-1.144-7.794-2.567-11.667-3.908-4.346-1.504-8.691-3.01-13.036-4.512-7.66-2.652-15.523-5.225-22.215-9.931-6.143-4.32-11.24-10.936-11.984-18.547-.012-.09-.017-.178-.033-.267a20.1 20.1 0 01-.071-1.615c-.001-.814-.97-.998-1.418-.56-.476.123-.876.642-.566 1.205.228.414.364.853.44 1.298.019.18.035.362.057.54.066 1.41-.515 2.845-1.505 3.882-.85.888-1.94 1.397-3.105 1.624a1.69 1.69 0 00-1.057-.3c-3.56.253-6.226-2.973-8.411-5.342a131.83 131.83 0 01-8.142-9.705 2.67 2.67 0 00-.757-.681c-.113-.192-.233-.38-.343-.574a.32.32 0 00-.02-.037c-.006-.016-.018-.027-.025-.041-1.352-2.4-2.45-4.921-2.93-7.651-.23-1.304-.248-2.676.005-3.99.126-.116.246-.248.35-.411 1.065-1.643 2.83-2.728 4.73-3.101a5.347 5.347 0 002.34-.09 6.86 6.86 0 011.169.244c1.846.559 3.61 1.945 5.092 3.154 1.602 1.31 2.954 2.773 3.807 4.678.342.76 1.274 1.069 2.077.938.28.064.557.072.819.03a.83.83 0 00.447-.125c.55-.22.995-.672 1.193-1.302a9.385 9.385 0 00.416-3.33l.174-.576c.1-.333-.065-.715-.356-.905-.205-1.08-.558-2.138-1.003-3.17a52.681 52.681 0 00-7.91-19.71l1.623.618c1.276.487 2.586 1.13 3.942 1.35 1.123.183 2.174-.078 2.99-.701.712.325 1.562.356 2.24-.108a19.093 19.093 0 004.288-4c.416-.45.78-.947 1.067-1.5.108-.207.179-.412.23-.613a24.074 24.074 0 002.533-5.464c2.69-2.391 3.512-6.292 3.442-9.953 2.77 3.319 6.847 5.473 11.174 5.948 5.598.617 10.99-2.023 14.365-6.452a16.372 16.372 0 002.254-4.074c.29-.516.567-1.038.829-1.567 2.22 3.676 5.742 6.636 9.99 7.535 5.063 1.07 10.178-1.314 12.688-5.846.544-.983.916-2.041 1.122-3.124.34 1.889.938 3.527 2.43 5.02.644.644 1.463 1.215 2.355 1.665 1.493 1.37 3.357 2.272 5.732 2.344 2.875.088 5.324-1.668 6.708-4.102 1.056-1.853 1.443-3.912 1.562-6.005 2.078 3.07 5.7 5.125 9.463 4.874 3.91-.261 7.294-2.787 8.952-6.208a8.14 8.14 0 002.623.892c.08.039.159.087.243.123-4.29 5.383-3.985 13.344-2.622 19.747 1.604 7.525 5.046 14.483 7.859 21.595 1.622 4.1 3.05 8.286 3.85 12.63.018.09.056.156.092.224a82.23 82.23 0 01.166 16.166m-53.166 51.449c-.763.768-1.981 1.147-3.008 1.404-1.096.274-2.358.403-3.417-.082-1.12-.513-1.593-1.711-2.352-2.603-.341-.4-.736-.691-1.167-.982-.656-.444-.586-.887-.61-1.636l-.241-8.401a435.036 435.036 0 0010.48 3.51.792.792 0 00.035.313c.472 1.46.8 2.959.919 4.49.098 1.258.338 3.006-.64 3.987M106.457 3.692a9.546 9.546 0 01-2.404 1.297c.755-.504 1.56-.94 2.404-1.297m30.338 69.749c.026-.028.05-.06.075-.087-1.055 1.387-2.542 2.344-4.325 2.428 1.603-.374 3.12-1.11 4.25-2.341m6.785-5.025a9.617 9.617 0 01-2.385-3.011 26.153 26.153 0 002.385 3.01m27.92 48.319c-3.51-12.924-11.904-24.714-11.643-38.433.073-3.86 1-7.871 3.623-10.796.434.053.873.067 1.307.026 3.369-.32 5.95-3.04 7.166-6.038 1.463-3.607 1.529-7.916 1.356-11.753-.124-2.762-.576-5.584-1.627-8.16-.382-1.36-1.1-2.578-2.028-3.6-1.643-2.178-3.863-3.93-6.45-4.768-.011-.033-.027-.065-.04-.098.44-2.15.738-4.482-.348-6.48a5.084 5.084 0 00-1.573-1.764c-.491-2-1.3-3.782-2.701-5.248a6.693 6.693 0 00-1.721-2.295 6.54 6.54 0 00-4.58-1.527 10.408 10.408 0 00-2.158-3.106c-3.24-3.241-9.391-4.51-13.33-1.72-.292.208-.587.422-.884.636-.741-2.75-2.68-5.016-5.165-6.425-.194-.154-.381-.316-.59-.457-2.072-1.411-4.778-1.98-7.205-1.386a10.98 10.98 0 00-1.88-1.472 4.368 4.368 0 00-1.93-1.321c-.81-.271-1.663-.337-2.52-.323-1.94-.302-3.963-.131-5.84.592-.186.03-.376.05-.562.085-3.481.642-7.015 2.145-9.405 4.714-1.454.018-2.848-.333-3.912-1.167-3.177-2.487-6.49-3.485-9.773-2.86-3.446.316-5.917 2.658-8.363 4.963l-2.667 2.174c-2.548-1.43-5.083-2.918-7.711-4.18-2.523-1.21-5.357-2.051-8.12-1.15-5.303 1.727-7.256 7.257-8.517 12.199-3.996-2.398-8.986-3.045-13.466-1.712-1.497.444-2.89 1.135-4.172 1.985a14.964 14.964 0 00-5.921 4.757c-2.416 3.254-3.414 7.167-2.954 10.913-.7.282-1.52.435-2.057.646-1.1.43-2.157.957-3.151 1.597a18.612 18.612 0 00-6.066 6.396 15.191 15.191 0 00-2.966 5.578c-1.465 5.099-.23 9.986 2.554 14.048-3.44.86-6.657 2.589-9.06 5.223a14.553 14.553 0 00-3.542 7.047c-1.483 3.949-.968 8.6 2.356 11.652.176.162.36.306.542.455C.435 86.027-.495 90.96.23 94.503c.717 3.505 2.886 6.61 5.862 8.523a10.177 10.177 0 00-1.226 1.74c-.015.023-.034.043-.05.066-.32.474-.536.989-.68 1.523-1.725 4.716-.276 11.03 4.612 13.419 1.142.557 1.256.379 1.712 1.09 1.048 1.63 2.318 2.806 3.699 3.629-.98 1.13-1.472 2.71-1.078 4.489.01.049.025.096.036.144-.036.302-.073.604-.086.906-.168 3.836 1.48 7.412 3.386 10.639 2.077 3.518 4.17 7.153 6.594 10.444 2.183 2.963 5.116 5.625 8.909 6.119 3.023.392 6.276-1.052 7.638-3.764a11.34 11.34 0 002.129 1.439c1.007 1.422 2.52 2.627 3.736 3.57 2.248 1.748 4.838 3.122 7.635 3.73 5.098 1.113 10.77-.536 13.81-4.924a32.991 32.991 0 002.495 2.454c6.327 5.554 14.364 8.604 22.202 11.343 4.618 1.615 9.232 3.265 13.858 4.88l.238 8.242c.034 1.16-.13 2.514.837 3.353.387.336.86.546 1.219.915.397.407.682.903 1.012 1.363 1.383 1.93 3.399 2.525 5.7 2.17 1.986-.306 4.566-1.186 5.418-3.184.553-1.298.424-2.884.297-4.255a21.417 21.417 0 00-.751-3.955c6.784 2.029 14.358 3.41 21.029.474 7.306-3.215 10.429-10.8 14.696-17.038a.763.763 0 00.44-.208c6.736-6.43 13.869-13.577 16.23-22.785a.867.867 0 00.597-.726c.949-7.663.809-15.395-.363-23.026-.054-.348-.27-.518-.523-.568" fill="#231F20" mask="url(#b)"/></g><path d="M250.73 149.478a26.107 26.107 0 00-13.535 8.433c-.679.804.48 1.975 1.165 1.164a24.616 24.616 0 0112.806-8.01c1.028-.258.592-1.846-.437-1.587m59.051.664c-4.073-3.508-9.534-4.211-14.705-4.562-1.058-.072-1.054 1.576 0 1.647 4.688.317 9.835.889 13.54 4.079.8.689 1.97-.471 1.164-1.164m-17.259 12.575c1.444 3.76 3.88 8.454 8.572 8.343 5.447-.13 8.004-5.563 9.433-10.02.393-1.228-1.537-1.755-1.929-.532-1.129 3.52-3.078 8.445-7.504 8.552-3.668.087-5.535-3.987-6.644-6.875-.457-1.19-2.392-.672-1.929.532m-40.641 14.595c1.659.343 3.425.088 4.9-.752 1.487-.845 2.503-2.26 3.095-3.836.667-1.775.742-3.764.562-5.633-.052-.538-.422-1-1-1-.5 0-1.052.459-1 1 .303 3.145-.242 7.278-3.846 8.216-3.354.873-6.31-1.986-5.894-5.341.067-.537-.506-1-1-1-.595 0-.932.462-1 1-.41 3.298 1.904 6.669 5.183 7.346m41.479 17.144c-2.04-2.717-4.134-5.396-6.188-8.104-1.986-2.618-4.384-6.168-2.517-9.49.52-.925-.9-1.756-1.422-.83-1.658 2.947-.715 6.327.998 9.018 2.083 3.272 4.683 6.274 7.036 9.355 1.343 1.76 6.01 8 1.414 8.763-1.946.323-3.974-.496-5.758-1.177a46.191 46.191 0 01-5.409-2.497c-.932-.503-1.765.92-.83 1.422 2.778 1.496 5.803 2.948 8.892 3.668 2.42.563 5.9.428 6.556-2.559.607-2.762-1.2-5.476-2.772-7.569m-.595 22.908a39.879 39.879 0 00-14.803 3.51c-1.172.528-.155 2.252 1.01 1.727a37.276 37.276 0 0113.793-3.237c1.282-.053 1.29-2.053 0-2m50.38 1.369l-5.374 1.884 2.343-4.361 1.85-3.443c.523-.973 1.252-2.13.617-3.231-1.107-1.92-3.873-.582-5.388-.09l-7.187 2.337c-1.219.396-.697 2.328.532 1.928l6.09-1.98c.975-.316 1.948-.636 2.923-.95.305-.098.618-.212.94-.24.066-.003.265-.032.34.009-.008.012-.016.023-.02.056-.066.416-.44.903-.636 1.267l-.8 1.492-1.482 2.755-3.084 5.74c-.385.717.264 1.772 1.13 1.469l7.737-2.714c1.207-.423.688-2.356-.53-1.928m25.499-9.902l-8.697 3.623c.516-4.71.51-9.445-.078-14.16-.09-.732-.786-1.275-1.505-.864l-9.324 5.314c-1.118.638-.11 2.366 1.01 1.727 2.664-1.519 5.33-3.037 7.994-4.557.451 4.606.385 9.258-.252 13.846-.089.644.434 1.561 1.231 1.23l10.152-4.23c1.171-.488.657-2.424-.53-1.929m28.263-9.232c-4.153 1.802-8.46 3.203-12.86 4.26-.202-6.75-.226-13.541-.689-20.271-.068-.998-.277-2.18-1.249-2.705-1.077-.582-2.092.064-2.864.807-2.547 2.447-4.928 5.096-7.383 7.637-.895.925.518 2.34 1.414 1.414l5.873-6.076c.465-.481.958-1.19 1.51-1.561.557-.376.644-.128.7.484.13 1.455.098 2.945.148 4.406l.574 17.134c.022.67.62 1.109 1.265.964a81.026 81.026 0 0014.57-4.766c1.178-.511.161-2.235-1.009-1.727m30.165-19.127l-15.978 10.68a435.235 435.235 0 00-4.412-35.501c-.13-.783-1.172-.908-1.672-.442l-14.769 13.757c-.944.879.473 2.29 1.414 1.414l13.37-12.452a428.823 428.823 0 014.228 34.988c.055.702.825 1.318 1.505.864 5.774-3.861 11.548-7.721 17.324-11.581 1.064-.711.064-2.445-1.01-1.727" fill="#231F20"/></g></svg>
